icons/mf.svg

<?xml version="1.0" ?>
<svg xmlns="http://www.w3.org/2000/svg" xmlns:ev="http://www.w3.org/2001/xml-events" xmlns:xlink="http://www.w3.org/1999/xlink" baseProfile="full" height="532px" version="1.1" viewBox="-1027.2405169596802 -330.0727856260296 12296.019996675472 10900.7506617002" width="600px">
	<defs/>
	<path d="M 9055.0,9650.0 C 8953.0,9642.0 8903.0,9622.0 8835.0,9559.0 C 8795.0,9522.0 8789.0,9520.0 8729.0,9520.0 C 8638.0,9520.0 8529.0,9538.0 8510.0,9555.0 C 8496.0,9568.0 8477.0,9568.0 8379.0,9558.0 C 8215.0,9542.0 8118.0,9490.0 8104.0,9411.0 C 8101.0,9391.0 8085.0,9358.0 8069.0,9338.0 C 8027.0,9285.0 8031.0,9254.0 8100.0,9097.0 C 8133.0,9021.0 8160.0,8958.0 8160.0,8956.0 C 8160.0,8954.0 8137.0,8938.0 8110.0,8920.0 C 8068.0,8893.0 8054.0,8889.0 8022.0,8894.0 C 8002.0,8897.0 7964.0,8903.0 7938.0,8906.0 C 7895.0,8912.0 7890.0,8916.0 7876.0,8951.0 C 7854.0,9007.0 7804.0,9033.0 7686.0,9055.0 C 7593.0,9071.0 7578.0,9077.0 7466.0,9146.0 C 7352.0,9216.0 7343.0,9220.0 7286.0,9220.0 C 7213.0,9220.0 7143.0,9195.0 7134.0,9167.0 C 7125.0,9137.0 7126.0,9089.0 7140.0,8977.0 C 7150.0,8893.0 7149.0,8870.0 7134.0,8804.0 C 7121.0,8742.0 7120.0,8718.0 7129.0,8673.0 C 7137.0,8633.0 7137.0,8613.0 7128.0,8597.0 C 7109.0,8560.0 7090.0,8477.0 7090.0,8425.0 C 7090.0,8355.0 7056.0,8243.0 7022.0,8201.0 C 7006.0,8181.0 6988.0,8149.0 6981.0,8128.0 C 6949.0,8030.0 6806.0,7874.0 6698.0,7819.0 C 6643.0,7791.0 6635.0,7790.0 6503.0,7790.0 C 6366.0,7790.0 6364.0,7790.0 6243.0,7833.0 C 6129.0,7874.0 6117.0,7881.0 6044.0,7948.0 C 5943.0,8041.0 5923.0,8043.0 5852.0,7965.0 C 5817.0,7927.0 5794.0,7910.0 5777.0,7910.0 C 5749.0,7910.0 5740.0,7894.0 5740.0,7845.0 C 5740.0,7784.0 5725.0,7761.0 5676.0,7748.0 C 5625.0,7734.0 5630.0,7751.0 5610.0,7545.0 C 5604.0,7485.0 5594.0,7429.0 5587.0,7422.0 C 5570.0,7401.0 5488.0,7362.0 5444.0,7355.0 C 5406.0,7348.0 5330.0,7289.0 5330.0,7265.0 C 5330.0,7249.0 5263.0,7200.0 5240.0,7200.0 C 5228.0,7200.0 5206.0,7193.0 5190.0,7185.0 C 5166.0,7173.0 5157.0,7156.0 5135.0,7088.0 C 5113.0,7016.0 5104.0,7001.0 5067.0,6972.0 C 5044.0,6954.0 4992.0,6907.0 4953.0,6867.0 L 4880.0,6796.0 L 4880.0,6740.0 C 4880.0,6692.0 4887.0,6673.0 4931.0,6595.0 C 4959.0,6546.0 4984.0,6492.0 4987.0,6477.0 C 4990.0,6462.0 5019.0,6414.0 5051.0,6372.0 C 5110.0,6296.0 5110.0,6295.0 5110.0,6228.0 C 5110.0,6148.0 5090.0,6088.0 5034.0,6004.0 C 5012.0,5972.0 4977.0,5916.0 4957.0,5880.0 C 4937.0,5844.0 4894.0,5784.0 4861.0,5745.0 C 4790.0,5663.0 4772.0,5613.0 4789.0,5546.0 C 4806.0,5479.0 4790.0,5448.0 4719.0,5404.0 C 4686.0,5385.0 4634.0,5339.0 4602.0,5303.0 C 4571.0,5268.0 4507.0,5212.0 4460.0,5181.0 C 4377.0,5125.0 4373.0,5123.0 4293.0,5118.0 C 4221.0,5113.0 4202.0,5107.0 4137.0,5071.0 C 4092.0,5046.0 4042.0,5008.0 4009.0,4972.0 C 3963.0,4922.0 3942.0,4909.0 3864.0,4878.0 C 3732.0,4825.0 3656.0,4820.0 3549.0,4855.0 C 3436.0,4893.0 3342.0,4941.0 3302.0,4983.0 C 3267.0,5019.0 3187.0,5057.0 3089.0,5085.0 C 3047.0,5097.0 2998.0,5127.0 2894.0,5203.0 C 2758.0,5304.0 2754.0,5308.0 2699.0,5400.0 C 2620.0,5533.0 2618.0,5545.0 2675.0,5608.0 C 2701.0,5637.0 2733.0,5661.0 2749.0,5665.0 C 2778.0,5671.0 2829.0,5718.0 2849.0,5756.0 C 2858.0,5775.0 2855.0,5781.0 2825.0,5804.0 C 2785.0,5835.0 2760.0,5877.0 2760.0,5914.0 C 2760.0,5932.0 2770.0,5946.0 2794.0,5962.0 C 2840.0,5992.0 2920.0,6137.0 2899.0,6151.0 C 2856.0,6180.0 2826.0,6190.0 2783.0,6190.0 C 2728.0,6189.0 2724.0,6185.0 2654.0,6063.0 C 2595.0,5959.0 2533.0,5907.0 2445.0,5887.0 C 2368.0,5869.0 2354.0,5858.0 2246.0,5715.0 C 2163.0,5605.0 2124.0,5575.0 2026.0,5545.0 L 1941.0,5519.0 L 1853.0,5544.0 C 1805.0,5558.0 1736.0,5574.0 1700.0,5581.0 C 1630.0,5594.0 1585.0,5621.0 1325.0,5806.0 C 1147.0,5932.0 1035.0,5980.0 890.0,5992.0 C 733.0,6004.0 552.0,5967.0 430.0,5898.0 C 390.0,5875.0 390.0,5875.0 390.0,5814.0 C 390.0,5780.0 396.0,5737.0 404.0,5719.0 C 417.0,5688.0 416.0,5683.0 392.0,5646.0 C 346.0,5573.0 247.0,5466.0 187.0,5424.0 C 97.0,5361.0 45.0,5296.0 20.0,5213.0 C 8.0,5173.0 0.0,5132.0 2.0,5120.0 C 4.0,5102.0 37.0,5085.0 185.0,5025.0 C 584.0,4864.0 760.0,4772.0 880.0,4664.0 C 942.0,4608.0 957.0,4588.0 969.0,4548.0 C 981.0,4507.0 981.0,4490.0 970.0,4444.0 C 952.0,4370.0 963.0,4344.0 1024.0,4308.0 C 1051.0,4292.0 1082.0,4267.0 1093.0,4252.0 C 1105.0,4237.0 1145.0,4193.0 1184.0,4154.0 L 1255.0,4082.0 L 1323.0,4075.0 C 1374.0,4070.0 1418.0,4056.0 1496.0,4020.0 C 1676.0,3936.0 1782.0,3866.0 1854.0,3786.0 L 1919.0,3713.0 L 1898.0,3692.0 C 1876.0,3671.0 1876.0,3670.0 1894.0,3615.0 C 1928.0,3506.0 1966.0,3436.0 2022.0,3383.0 C 2071.0,3335.0 2080.0,3330.0 2139.0,3322.0 C 2208.0,3312.0 2212.0,3309.0 2300.0,3202.0 C 2334.0,3162.0 2338.0,3160.0 2413.0,3150.0 C 2507.0,3138.0 2516.0,3134.0 2544.0,3084.0 C 2562.0,3052.0 2571.0,3044.0 2601.0,3042.0 C 2634.0,3039.0 2639.0,3043.0 2672.0,3092.0 C 2691.0,3121.0 2717.0,3174.0 2729.0,3210.0 C 2768.0,3325.0 2835.0,3353.0 3107.0,3365.0 C 3252.0,3372.0 3264.0,3371.0 3372.0,3345.0 C 3531.0,3305.0 3753.0,3205.0 3916.0,3098.0 C 4044.0,3015.0 4047.0,3012.0 4102.0,2924.0 C 4151.0,2846.0 4159.0,2825.0 4169.0,2755.0 C 4178.0,2693.0 4177.0,2665.0 4168.0,2631.0 C 4156.0,2591.0 4151.0,2586.0 4092.0,2563.0 C 4040.0,2542.0 4026.0,2531.0 4009.0,2498.0 C 3992.0,2465.0 3991.0,2453.0 4000.0,2426.0 C 4016.0,2377.0 4096.0,2305.0 4152.0,2290.0 C 4218.0,2273.0 4256.0,2246.0 4279.0,2203.0 C 4289.0,2182.0 4315.0,2146.0 4335.0,2122.0 C 4367.0,2086.0 4377.0,2080.0 4411.0,2080.0 C 4433.0,2080.0 4465.0,2088.0 4483.0,2097.0 C 4541.0,2127.0 4609.0,2137.0 4693.0,2128.0 C 4789.0,2118.0 4928.0,2079.0 5025.0,2035.0 C 5094.0,2003.0 5099.0,1999.0 5129.0,1939.0 C 5146.0,1905.0 5160.0,1862.0 5160.0,1845.0 C 5160.0,1772.0 5241.0,1758.0 5330.0,1815.0 C 5454.0,1894.0 5514.0,1871.0 5668.0,1687.0 C 5719.0,1625.0 5746.0,1602.0 5787.0,1584.0 C 5852.0,1555.0 5856.0,1555.0 5911.0,1579.0 C 5955.0,1599.0 6022.0,1661.0 6053.0,1713.0 C 6070.0,1740.0 6072.0,1740.0 6170.0,1740.0 C 6291.0,1740.0 6369.0,1720.0 6432.0,1675.0 C 6468.0,1649.0 6482.0,1629.0 6504.0,1576.0 C 6526.0,1519.0 6530.0,1495.0 6530.0,1402.0 L 6530.0,1294.0 L 6564.0,1261.0 L 6598.0,1228.0 L 6631.0,1245.0 C 6650.0,1255.0 6667.0,1264.0 6669.0,1266.0 C 6671.0,1268.0 6676.0,1302.0 6680.0,1342.0 C 6685.0,1400.0 6681.0,1449.0 6658.0,1580.0 C 6643.0,1671.0 6630.0,1750.0 6630.0,1757.0 C 6630.0,1763.0 6665.0,1787.0 6707.0,1810.0 C 6788.0,1854.0 6799.0,1863.0 6830.0,1922.0 C 6880.0,2015.0 7054.0,2051.0 7265.0,2012.0 C 7436.0,1980.0 7552.0,1934.0 7659.0,1853.0 L 7750.0,1785.0 L 7750.0,1715.0 C 7750.0,1676.0 7743.0,1620.0 7735.0,1592.0 C 7720.0,1542.0 7720.0,1538.0 7746.0,1473.0 C 7761.0,1435.0 7796.0,1354.0 7826.0,1292.0 L 7879.0,1180.0 L 7819.0,1062.0 C 7750.0,926.0 7737.0,869.0 7750.0,747.0 C 7765.0,603.0 7800.0,559.0 7869.0,594.0 C 7885.0,603.0 7916.0,610.0 7937.0,610.0 C 7986.0,610.0 8030.0,637.0 8072.0,693.0 C 8090.0,718.0 8117.0,746.0 8131.0,756.0 C 8162.0,777.0 8220.0,880.0 8255.0,977.0 C 8269.0,1014.0 8288.0,1051.0 8297.0,1058.0 C 8307.0,1065.0 8353.0,1083.0 8400.0,1097.0 C 8504.0,1128.0 8516.0,1136.0 8560.0,1202.0 C 8594.0,1253.0 8603.0,1258.0 8686.0,1279.0 C 8721.0,1289.0 8728.0,1295.0 8738.0,1329.0 C 8745.0,1350.0 8750.0,1380.0 8750.0,1395.0 C 8750.0,1410.0 8759.0,1438.0 8770.0,1456.0 C 8796.0,1497.0 8906.0,1585.0 8959.0,1606.0 C 8987.0,1617.0 9002.0,1631.0 9015.0,1660.0 C 9032.0,1698.0 9032.0,1700.0 9005.0,1782.0 C 8990.0,1827.0 8966.0,1887.0 8953.0,1914.0 C 8921.0,1977.0 8927.0,2023.0 8970.0,2045.0 C 8987.0,2054.0 9022.0,2080.0 9049.0,2104.0 C 9076.0,2128.0 9114.0,2154.0 9134.0,2161.0 C 9156.0,2169.0 9175.0,2186.0 9187.0,2208.0 C 9199.0,2231.0 9223.0,2251.0 9260.0,2270.0 L 9315.0,2298.0 L 9327.0,2371.0 C 9337.0,2438.0 9342.0,2448.0 9378.0,2480.0 C 9428.0,2525.0 9424.0,2557.0 9364.0,2580.0 C 9292.0,2607.0 9253.0,2638.0 9246.0,2671.0 C 9234.0,2733.0 9240.0,2786.0 9269.0,2855.0 C 9285.0,2894.0 9303.0,2959.0 9310.0,3000.0 C 9320.0,3062.0 9330.0,3087.0 9367.0,3142.0 C 9392.0,3179.0 9420.0,3212.0 9429.0,3214.0 C 9438.0,3217.0 9472.0,3224.0 9505.0,3230.0 C 9576.0,3244.0 9600.0,3264.0 9642.0,3343.0 C 9663.0,3381.0 9688.0,3412.0 9716.0,3431.0 C 9740.0,3447.0 9771.0,3475.0 9784.0,3493.0 L 9809.0,3526.0 L 9785.0,3575.0 C 9771.0,3603.0 9749.0,3668.0 9735.0,3720.0 C 9715.0,3797.0 9711.0,3829.0 9715.0,3890.0 C 9725.0,4021.0 9734.0,4040.0 9801.0,4085.0 C 9872.0,4132.0 9892.0,4160.0 9892.0,4207.0 C 9892.0,4267.0 9849.0,4276.0 9762.0,4235.0 C 9732.0,4221.0 9702.0,4210.0 9694.0,4210.0 C 9676.0,4210.0 9627.0,4278.0 9585.0,4361.0 L 9551.0,4427.0 L 9585.0,4460.0 L 9619.0,4493.0 L 9677.0,4481.0 C 9727.0,4471.0 9742.0,4462.0 9790.0,4415.0 C 9831.0,4375.0 9853.0,4360.0 9873.0,4360.0 C 9936.0,4360.0 9980.0,4316.0 9980.0,4253.0 C 9980.0,4227.0 9981.0,4227.0 10042.0,4233.0 C 10099.0,4238.0 10108.0,4242.0 10142.0,4279.0 L 10180.0,4319.0 L 10180.0,4412.0 C 10180.0,4497.0 10177.0,4510.0 10149.0,4560.0 C 10132.0,4590.0 10107.0,4643.0 10093.0,4678.0 C 10060.0,4761.0 10065.0,4828.0 10115.0,4973.0 C 10147.0,5065.0 10151.0,5088.0 10146.0,5134.0 C 10138.0,5192.0 10081.0,5297.0 10060.0,5292.0 C 10053.0,5290.0 10018.0,5285.0 9981.0,5281.0 C 9892.0,5269.0 9870.0,5257.0 9831.0,5200.0 C 9804.0,5161.0 9790.0,5150.0 9754.0,5141.0 C 9713.0,5131.0 9707.0,5132.0 9644.0,5165.0 C 9602.0,5187.0 9565.0,5200.0 9540.0,5200.0 C 9489.0,5200.0 9430.0,5226.0 9402.0,5261.0 C 9386.0,5281.0 9359.0,5295.0 9311.0,5310.0 C 9273.0,5321.0 9222.0,5341.0 9198.0,5355.0 C 9150.0,5382.0 8923.0,5450.0 8881.0,5450.0 C 8862.0,5450.0 8839.0,5435.0 8800.0,5395.0 C 8751.0,5346.0 8741.0,5340.0 8703.0,5340.0 C 8680.0,5340.0 8649.0,5345.0 8634.0,5350.0 C 8610.0,5360.0 8608.0,5364.0 8613.0,5400.0 C 8621.0,5463.0 8658.0,5528.0 8701.0,5557.0 C 8733.0,5578.0 8740.0,5588.0 8740.0,5615.0 C 8740.0,5664.0 8801.0,5715.0 8870.0,5725.0 C 8907.0,5730.0 8940.0,5745.0 8986.0,5775.0 C 9028.0,5803.0 9071.0,5823.0 9108.0,5830.0 C 9176.0,5844.0 9186.0,5851.0 9194.0,5892.0 C 9204.0,5940.0 9254.0,6021.0 9307.0,6071.0 C 9344.0,6106.0 9369.0,6121.0 9417.0,6133.0 C 9452.0,6143.0 9485.0,6150.0 9491.0,6150.0 C 9511.0,6150.0 9494.0,6030.0 9456.0,5915.0 L 9421.0,5808.0 L 9444.0,5691.0 C 9457.0,5627.0 9482.0,5530.0 9500.0,5475.0 L 9533.0,5375.0 L 9609.0,5323.0 C 9667.0,5283.0 9694.0,5270.0 9722.0,5270.0 C 9753.0,5270.0 9760.0,5274.0 9767.0,5297.0 C 9776.0,5323.0 9771.0,5330.0 9696.0,5401.0 L 9615.0,5478.0 L 9586.0,5591.0 C 9570.0,5654.0 9553.0,5734.0 9549.0,5770.0 C 9542.0,5833.0 9543.0,5838.0 9581.0,5910.0 C 9632.0,6007.0 9639.0,6015.0 9684.0,6034.0 C 9733.0,6055.0 9793.0,6054.0 9847.0,6034.0 C 9887.0,6018.0 9892.0,6018.0 9908.0,6033.0 C 9918.0,6042.0 9934.0,6076.0 9944.0,6107.0 C 9976.0,6207.0 10027.0,6297.0 10095.0,6369.0 C 10153.0,6430.0 10159.0,6441.0 10154.0,6467.0 C 10149.0,6491.0 10140.0,6500.0 10111.0,6509.0 C 10053.0,6526.0 9800.0,6649.0 9751.0,6684.0 C 9727.0,6701.0 9682.0,6747.0 9651.0,6786.0 C 9620.0,6825.0 9567.0,6880.0 9533.0,6908.0 C 9455.0,6973.0 9373.0,7092.0 9332.0,7198.0 C 9301.0,7277.0 9299.0,7291.0 9290.0,7492.0 C 9281.0,7677.0 9277.0,7707.0 9259.0,7736.0 C 9247.0,7756.0 9237.0,7794.0 9234.0,7827.0 C 9225.0,7927.0 9210.0,7972.0 9170.0,8015.0 C 9149.0,8037.0 9113.0,8084.0 9090.0,8120.0 C 9053.0,8178.0 9049.0,8190.0 9053.0,8230.0 C 9056.0,8255.0 9068.0,8301.0 9080.0,8332.0 L 9101.0,8388.0 L 9172.0,8404.0 C 9211.0,8413.0 9262.0,8420.0 9286.0,8420.0 C 9333.0,8420.0 9426.0,8384.0 9449.0,8357.0 C 9472.0,8328.0 9553.0,8335.0 9615.0,8370.0 C 9662.0,8397.0 9670.0,8407.0 9688.0,8458.0 C 9699.0,8489.0 9711.0,8533.0 9714.0,8554.0 C 9720.0,8598.0 9706.0,8621.0 9619.0,8715.0 C 9575.0,8762.0 9572.0,8770.0 9560.0,8850.0 C 9554.0,8897.0 9540.0,8967.0 9529.0,9006.0 C 9514.0,9061.0 9510.0,9110.0 9510.0,9236.0 C 9510.0,9390.0 9509.0,9397.0 9488.0,9417.0 C 9425.0,9475.0 9175.0,9660.0 9161.0,9658.0 C 9152.0,9658.0 9105.0,9654.0 9055.0,9650.0" fill="pink"/>
	<path d="M 9941.0,8374.0 C 9824.0,8348.0 9800.0,8321.0 9800.0,8215.0 C 9800.0,8138.0 9809.0,8116.0 9853.0,8088.0 C 9900.0,8058.0 9926.0,8062.0 9964.0,8107.0 C 9988.0,8134.0 9986.0,8134.0 10205.0,8150.0 C 10239.0,8152.0 10240.0,8167.0 10211.0,8235.0 C 10184.0,8299.0 10177.0,8307.0 10114.0,8346.0 C 10038.0,8393.0 10033.0,8394.0 9941.0,8374.0" fill="pink"/>
	<path d="M 10164.0,6964.0 C 10155.0,6943.0 10146.0,6903.0 10143.0,6874.0 C 10138.0,6823.0 10138.0,6821.0 10165.0,6814.0 C 10210.0,6803.0 10234.0,6836.0 10238.0,6920.0 C 10242.0,6978.0 10240.0,6990.0 10227.0,6990.0 C 10219.0,6990.0 10204.0,6993.0 10196.0,6996.0 C 10184.0,7001.0 10176.0,6992.0 10164.0,6964.0" fill="pink"/>
</svg>

<?xml version="1.0" standalone="no"?>
<!DOCTYPE svg PUBLIC "-//W3C//DTD SVG 20010904//EN"
 "http://www.w3.org/TR/2001/REC-SVG-20010904/DTD/svg10.dtd">
<svg version="1.0" xmlns="http://www.w3.org/2000/svg"
 width="1024.000000pt" height="1024.000000pt" viewBox="0 0 1024.000000 1024.000000"
 preserveAspectRatio="xMidYMid meet">
<metadata>
Created by potrace 1.10, written by Peter Selinger 2001-2011
</metadata>
<g transform="translate(0.000000,1024.000000) scale(0.100000,-0.100000)"
fill="#000000" stroke="none">
<path d="M9055 9650 c-102 -8 -152 -28 -220 -91 -40 -37 -46 -39 -106 -39 -91
0 -200 18 -219 35 -14 13 -33 13 -131 3 -164 -16 -261 -68 -275 -147 -3 -20
-19 -53 -35 -73 -42 -53 -38 -84 31 -241 33 -76 60 -139 60 -141 0 -2 -23 -18
-50 -36 -42 -27 -56 -31 -88 -26 -20 3 -58 9 -84 12 -43 6 -48 10 -62 45 -22
56 -72 82 -190 104 -93 16 -108 22 -220 91 -114 70 -123 74 -180 74 -73 0
-143 -25 -152 -53 -9 -30 -8 -78 6 -190 10 -84 9 -107 -6 -173 -13 -62 -14
-86 -5 -131 8 -40 8 -60 -1 -76 -19 -37 -38 -120 -38 -172 0 -70 -34 -182 -68
-224 -16 -20 -34 -52 -41 -73 -32 -98 -175 -254 -283 -309 -55 -28 -63 -29
-195 -29 -137 0 -139 0 -260 43 -114 41 -126 48 -199 115 -101 93 -121 95
-192 17 -35 -38 -58 -55 -75 -55 -28 0 -37 -16 -37 -65 0 -61 -15 -84 -64 -97
-51 -14 -46 3 -66 -203 -6 -60 -16 -116 -23 -123 -17 -21 -99 -60 -143 -67
-38 -7 -114 -66 -114 -90 0 -16 -67 -65 -90 -65 -12 0 -34 -7 -50 -15 -24 -12
-33 -29 -55 -97 -22 -72 -31 -87 -68 -116 -23 -18 -75 -65 -114 -105 l-73 -71
0 -56 c0 -48 7 -67 51 -145 28 -49 53 -103 56 -118 3 -15 32 -63 64 -105 59
-76 59 -77 59 -144 0 -80 -20 -140 -76 -224 -22 -32 -57 -88 -77 -124 -20 -36
-63 -96 -96 -135 -71 -82 -89 -132 -72 -199 17 -67 1 -98 -70 -142 -33 -19
-85 -65 -117 -101 -31 -35 -95 -91 -142 -122 -83 -56 -87 -58 -167 -63 -72 -5
-91 -11 -156 -47 -45 -25 -95 -63 -128 -99 -46 -50 -67 -63 -145 -94 -132 -53
-208 -58 -315 -23 -113 38 -207 86 -247 128 -35 36 -115 74 -213 102 -42 12
-91 42 -195 118 -136 101 -140 105 -195 197 -79 133 -81 145 -24 208 26 29 58
53 74 57 29 6 80 53 100 91 9 19 6 25 -24 48 -40 31 -65 73 -65 110 0 18 10
32 34 48 46 30 126 175 105 189 -43 29 -73 39 -116 39 -55 -1 -59 -5 -129
-127 -59 -104 -121 -156 -209 -176 -77 -18 -91 -29 -199 -172 -83 -110 -122
-140 -220 -170 l-85 -26 -88 25 c-48 14 -117 30 -153 37 -70 13 -115 40 -375
225 -178 126 -290 174 -435 186 -157 12 -338 -25 -460 -94 -40 -23 -40 -23
-40 -84 0 -34 6 -77 14 -95 13 -31 12 -36 -12 -73 -46 -73 -145 -180 -205
-222 -90 -63 -142 -128 -167 -211 -12 -40 -20 -81 -18 -93 2 -18 35 -35 183
-95 399 -161 575 -253 695 -361 62 -56 77 -76 89 -116 12 -41 12 -58 1 -104
-18 -74 -7 -100 54 -136 27 -16 58 -41 69 -56 12 -15 52 -59 91 -98 l71 -72
68 -7 c51 -5 95 -19 173 -55 180 -84 286 -154 358 -234 l65 -73 -21 -21 c-22
-21 -22 -22 -4 -77 34 -109 72 -179 128 -232 49 -48 58 -53 117 -61 69 -10 73
-13 161 -120 34 -40 38 -42 113 -52 94 -12 103 -16 131 -66 18 -32 27 -40 57
-42 33 -3 38 1 71 50 19 29 45 82 57 118 39 115 106 143 378 155 145 7 157 6
265 -20 159 -40 381 -140 544 -247 128 -83 131 -86 186 -174 49 -78 57 -99 67
-169 9 -62 8 -90 -1 -124 -12 -40 -17 -45 -76 -68 -52 -21 -66 -32 -83 -65
-17 -33 -18 -45 -9 -72 16 -49 96 -121 152 -136 66 -17 104 -44 127 -87 10
-21 36 -57 56 -81 32 -36 42 -42 76 -42 22 0 54 8 72 17 58 30 126 40 210 31
96 -10 235 -49 332 -93 69 -32 74 -36 104 -96 17 -34 31 -77 31 -94 0 -73 81
-87 170 -30 124 79 184 56 338 -128 51 -62 78 -85 119 -103 65 -29 69 -29 124
-5 44 20 111 82 142 134 17 27 19 27 117 27 121 0 199 -20 262 -65 36 -26 50
-46 72 -99 22 -57 26 -81 26 -174 l0 -108 34 -33 34 -33 33 17 c19 10 36 19
38 21 2 2 7 36 11 76 5 58 1 107 -22 238 -15 91 -28 170 -28 177 0 6 35 30 77
53 81 44 92 53 123 112 50 93 224 129 435 90 171 -32 287 -78 394 -159 l91
-68 0 -70 c0 -39 -7 -95 -15 -123 -15 -50 -15 -54 11 -119 15 -38 50 -119 80
-181 l53 -112 -60 -118 c-69 -136 -82 -193 -69 -315 15 -144 50 -188 119 -153
16 9 47 16 68 16 49 0 93 27 135 83 18 25 45 53 59 63 31 21 89 124 124 221
14 37 33 74 42 81 10 7 56 25 103 39 104 31 116 39 160 105 34 51 43 56 126
77 35 10 42 16 52 50 7 21 12 51 12 66 0 15 9 43 20 61 26 41 136 129 189 150
28 11 43 25 56 54 17 38 17 40 -10 122 -15 45 -39 105 -52 132 -32 63 -26 109
17 131 17 9 52 35 79 59 27 24 65 50 85 57 22 8 41 25 53 47 12 23 36 43 73
62 l55 28 12 73 c10 67 15 77 51 109 50 45 46 77 -14 100 -72 27 -111 58 -118
91 -12 62 -6 115 23 184 16 39 34 104 41 145 10 62 20 87 57 142 25 37 53 70
62 72 9 3 43 10 76 16 71 14 95 34 137 113 21 38 46 69 74 88 24 16 55 44 68
62 l25 33 -24 49 c-14 28 -36 93 -50 145 -20 77 -24 109 -20 170 10 131 19
150 86 195 71 47 91 75 91 122 0 60 -43 69 -130 28 -30 -14 -60 -25 -68 -25
-18 0 -67 68 -109 151 l-34 66 34 33 34 33 58 -12 c50 -10 65 -19 113 -66 41
-40 63 -55 83 -55 63 0 107 -44 107 -107 0 -26 1 -26 62 -20 57 5 66 9 100 46
l38 40 0 93 c0 85 -3 98 -31 148 -17 30 -42 83 -56 118 -33 83 -28 150 22 295
32 92 36 115 31 161 -8 58 -65 163 -86 158 -7 -2 -42 -7 -79 -11 -89 -12 -111
-24 -150 -81 -27 -39 -41 -50 -77 -59 -41 -10 -47 -9 -110 24 -42 22 -79 35
-104 35 -51 0 -110 26 -138 61 -16 20 -43 34 -91 49 -38 11 -89 31 -113 45
-48 27 -275 95 -317 95 -19 0 -42 -15 -81 -55 -49 -49 -59 -55 -97 -55 -23 0
-54 5 -69 10 -24 10 -26 14 -21 50 8 63 45 128 88 157 32 21 39 31 39 58 0 49
61 100 130 110 37 5 70 20 116 50 42 28 85 48 122 55 68 14 78 21 86 62 10 48
60 129 113 179 37 35 62 50 110 62 35 10 68 17 74 17 20 0 3 -120 -35 -235
l-35 -107 23 -117 c13 -64 38 -161 56 -216 l33 -100 76 -52 c58 -40 85 -53
113 -53 31 0 38 4 45 27 9 26 4 33 -71 104 l-81 77 -29 113 c-16 63 -33 143
-37 179 -7 63 -6 68 32 140 51 97 58 105 103 124 49 21 109 20 163 0 40 -16
45 -16 61 -1 10 9 26 43 36 74 32 100 83 190 151 262 58 61 64 72 59 98 -5 24
-14 33 -43 42 -58 17 -311 140 -360 175 -24 17 -69 63 -100 102 -31 39 -84 94
-118 122 -78 65 -160 184 -201 290 -31 79 -33 93 -42 294 -9 185 -13 215 -31
244 -12 20 -22 58 -25 91 -9 100 -24 145 -64 188 -21 22 -57 69 -80 105 -37
58 -41 70 -37 110 3 25 15 71 27 102 l21 56 71 16 c39 9 90 16 114 16 47 0
140 -36 163 -63 23 -29 104 -22 166 13 47 27 55 37 73 88 11 31 23 75 26 96 6
44 -8 67 -95 161 -44 47 -47 55 -59 135 -6 47 -20 117 -31 156 -15 55 -19 104
-19 230 0 154 -1 161 -22 181 -63 58 -313 243 -327 241 -9 0 -56 -4 -106 -8z"/>
<path d="M9941 8374 c-117 -26 -141 -53 -141 -159 0 -77 9 -99 53 -127 47 -30
73 -26 111 19 24 27 22 27 241 43 34 2 35 17 6 85 -27 64 -34 72 -97 111 -76
47 -81 48 -173 28z"/>
<path d="M10164 6964 c-9 -21 -18 -61 -21 -90 -5 -51 -5 -53 22 -60 45 -11 69
22 73 106 4 58 2 70 -11 70 -8 0 -23 3 -31 6 -12 5 -20 -4 -32 -32z"/>
</g>
</svg>
